X:1
T:Title
%%score { ( 1 3 ) | ( 2 4 5 ) }
L:1/8
Q:1/4=100
M:4/4
K:Ab
V:1 treble nm="Grand Piano"
V:3 treble 
V:2 bass 
V:4 bass 
V:5 bass 
V:1
 [CE]2 [CE]2 (3[_C=D][CD][CD] [=CE]2 | .[A,C]>A, [A,EA]>B c4 | [Fd]>[Fd] [Fd]2 c>c c2 | %3
w: L.~E.~Jones * * * * *|||
 B>A G>A B4 | [CE]2 [CE]2 (3[_C=D][CD][CD] [=CE]2 | [A,C]>[CE] [CA]>[EG] F4 | %6
w: |||
 F>F [FA]>[DF] [CE]>[CA] [EA]>[Ec] | B2 G2 [CA]4 | [EB]2 [DG]2 [CA]2 [CE]2 | (3ccc d>c B4 | %10
w: ||||
 G2 A2 B2 E2 | (3[CE][CE][CE] [EA]>[EB] [Ec]4 | c2 c2 B2 B2 | (3AAA B>A [G,=EG]3 [CEG] | %14
w: ||||
 [A,F]>[A,DF] [A,FA]>[A,DF] [A,CE]>[A,CA] [A,EA]>[Fd] | c>A B>G [CA]4 |] %16
w: ||
V:2
 [A,,A,]2 [A,,A,]2 (3[A,,F,][A,,F,][A,,F,] [A,,A,]2 | z C z2 z4 | %2
 [D,A,]>[D,A,] [D,A,]2 [A,E]>[A,E] [A,E]2 | [E,DE]>[E,CE] [E,B,D]>[E,A,C] [E,G,E]4 | %4
 [A,,A,]2 [A,,A,]2 (3[A,,F,][A,,F,][A,,F,] [A,,A,]2 | [A,,E,]>[A,,A,] [A,,A,]>[C,A,] [D,A,D]4 | %6
 [D,A,D]>[D,A,D] [D,A,]>[D,A,] [A,,A,]>[A,,A,] [C,A,]>[A,,A,] | [E,G,D]2 [E,D]2 [A,,E,]4 | %8
 [E,G,]2 [E,B,]2 [A,,A,]2 [A,,A,]2 | (3[A,E][A,E][A,E] [A,F]>[A,E][K:bass] [E,G,E]4 | %10
 [E,B,E]2 [E,A,C]2 [E,G,D]2 [E,G,D]2 | (3[A,,A,][A,,A,][A,,A,] [C,A,]>[E,G,] [A,,A,]4 | %12
 [A,E]2 [A,E]2 [E,G,D]2 [E,G,D]2 | (3[F,A,C][F,A,C][F,A,C] [F,A,C]>[F,A,F] C,3 C, | %14
 D,>D, D,>D, D,>A,, C,>[D,A,] | [E,A,E]>[E,A,C] [E,G,D]>[E,D] [A,,E,]4 |] %16
V:3
 x8 | z E z2 z4 | x8 | x8 | x8 | x8 | x8 | x8 | x8 | x8 | x8 | x8 | x8 | x8 | x8 | x8 |] %16
V:4
 x8 | z z/ A,,/ C,>[E,G,E] [A,E]4 | x8 | x8 | x8 | x8 | x8 | x8 | x8 | x4[K:bass] x4 | x8 | x8 | %12
 x8 | x8 | x8 | x8 |] %16
V:5
 x8 | [A,,E,]2 z2 z4 | x8 | x8 | x8 | x8 | x8 | x8 | x8 | x4[K:bass] x4 | x8 | x8 | x8 | x8 | x8 | %15
 x8 |] %16

